assets/svg/1F3B8.svg

<svg xmlns="http://www.w3.org/2000/svg" viewBox="0 0 64 64" enable-background="new 0 0 64 64"><path fill="#1f2e35" d="m53.17 57.46c.582.697.463 1.758-.268 2.365-.737.614-1.8.54-2.38-.157-.583-.697-.458-1.754.269-2.369.732-.607 1.795-.536 2.379.161"/><g fill="#b7b7b7"><path d="m36.37 36.31c.252.324-.747 1.589-2.223 2.82l0 0c-1.481 1.241-2.882 1.98-3.142 1.671l-30.04-35.929c-.262-.316.714-1.558 2.214-2.813l0 0c1.467-1.228 2.874-1.973 3.147-1.671l30.05 35.922"/><path d="m15.906 7.279c.04.076-2.127 1.973-4.822 4.224l0 0c-2.705 2.262-4.925 4.03-4.973 3.966l-6.11-7.284c-.056-.066 2.07-1.923 4.812-4.216l0 0c2.678-2.241 4.911-4.01 4.981-3.968l6.112 7.278"/></g><path fill="#a5805b" d="m47.3 34.23c0 0-6.454-.565-10.924-7.391-5.353-8.169-12.164.186-12.164.186s-9.08 5.823-1.576 12.07c6.272 5.214 6.107 11.692 6.107 11.692s1.18 23.271 23.509 7.677c18.03-20.4-4.952-24.23-4.952-24.23"/><path fill="#c2986b" d="m40.08 45.17c0 0 .18-7.07-6.667-12.765-4.102-3.413-3.665-6.706-2.208-9.145-3.764-.208-7 3.762-7 3.762s-9.07 5.819-1.568 12.06c6.273 5.214 6.105 11.692 6.105 11.692s1.137 22.281 22.11 8.626c-10.06-.496-10.762-14.234-10.762-14.234"/><g fill="#1f2e35"><path d="m46.896 43.46c2.262 2.711 1.782 6.834-1.055 9.203-2.843 2.373-6.98 2.092-9.242-.615-2.259-2.707-1.784-6.83 1.057-9.199 2.842-2.373 6.979-2.096 9.24.611"/><path d="m24.06 27.872c9.409 11.28 16.89 20.552 16.703 20.709-.188.152-7.971-8.864-17.375-20.15-9.409-11.279-16.885-20.55-16.7-20.708.186-.155 7.965 8.864 17.372 20.14"/><path d="m25.749 26.468c9.409 11.281 16.887 20.553 16.702 20.706-.19.161-7.97-8.861-17.376-20.14-9.408-11.279-16.888-20.55-16.702-20.709.187-.153 7.968 8.865 17.376 20.14"/></g></svg>

<?xml version="1.0" encoding="utf-8"?>
<!-- Generator: Adobe Illustrator 16.0.0, SVG Export Plug-In . SVG Version: 6.00 Build 0)  -->
<!DOCTYPE svg PUBLIC "-//W3C//DTD SVG 1.1//EN" "http://www.w3.org/Graphics/SVG/1.1/DTD/svg11.dtd">
<svg version="1.1" id="Layer_1" xmlns="http://www.w3.org/2000/svg" xmlns:xlink="http://www.w3.org/1999/xlink" x="0px" y="0px"
	 width="64px" height="64px" viewBox="0 0 64 64" enable-background="new 0 0 64 64" xml:space="preserve">
<g>
	<path fill="#1F2E35" d="M53.171,57.462c0.582,0.697,0.463,1.758-0.268,2.365c-0.737,0.614-1.8,0.54-2.38-0.157
		c-0.583-0.697-0.458-1.754,0.269-2.369C51.524,56.694,52.587,56.765,53.171,57.462z"/>
	<g>
		<path fill="#B7B7B7" d="M36.375,36.307c0.252,0.324-0.747,1.589-2.223,2.82l0,0c-1.481,1.241-2.882,1.98-3.142,1.671L0.969,4.869
			C0.707,4.553,1.683,3.311,3.183,2.056l0,0C4.65,0.828,6.057,0.083,6.33,0.385L36.375,36.307z"/>
	</g>
	<g>
		<path fill="#B7B7B7" d="M15.906,7.279c0.04,0.076-2.127,1.973-4.822,4.224l0,0c-2.705,2.262-4.925,4.028-4.973,3.966l-6.11-7.284
			c-0.056-0.066,2.07-1.923,4.812-4.216l0,0c2.678-2.241,4.911-4.013,4.981-3.968L15.906,7.279z"/>
	</g>
	<path fill="#A5805B" d="M47.297,34.225c0,0-6.454-0.565-10.924-7.391c-5.353-8.169-12.164,0.186-12.164,0.186
		s-9.081,5.823-1.576,12.068c6.272,5.214,6.107,11.692,6.107,11.692s1.18,23.271,23.509,7.677
		C70.28,38.057,47.297,34.225,47.297,34.225z"/>
	<path fill="#C2986B" d="M40.083,45.172c0,0,0.18-7.07-6.667-12.765c-4.102-3.413-3.665-6.706-2.208-9.145
		c-3.764-0.208-7.005,3.762-7.005,3.762s-9.075,5.819-1.568,12.064c6.273,5.214,6.105,11.692,6.105,11.692
		s1.137,22.281,22.105,8.626C40.78,58.91,40.083,45.172,40.083,45.172z"/>
	<path fill="#1F2E35" d="M46.896,43.464c2.262,2.711,1.782,6.834-1.055,9.203c-2.843,2.373-6.98,2.092-9.242-0.615
		c-2.259-2.707-1.784-6.83,1.057-9.199C40.498,40.48,44.635,40.757,46.896,43.464z"/>
	<path fill="#1F2E35" d="M24.062,27.872c9.409,11.28,16.89,20.552,16.703,20.709c-0.188,0.152-7.971-8.864-17.375-20.146
		C13.981,17.156,6.505,7.885,6.69,7.727C6.876,7.572,14.655,16.591,24.062,27.872z"/>
	<path fill="#1F2E35" d="M25.749,26.468c9.409,11.281,16.887,20.553,16.702,20.706c-0.19,0.161-7.97-8.861-17.376-20.142
		C15.667,15.753,8.187,6.482,8.373,6.323C8.56,6.17,16.341,15.188,25.749,26.468z"/>
</g>
</svg>
